X: 14301
T: For the sake of some-body
T: For the sake of some Body
%R: air, strathspey
B: James Oswald "The Caledonian Pocket Companion" v.1 b.4 p.30 #1
S: https://ia800501.us.archive.org/18/items/caledonianpocket01rugg/caledonianpocket01rugg_bw.pdf
Z: 2020 John Chambers <jc:trillian.mit.edu>
M: C
L: 1/16
K: Gmix	% ending on Em
%%slurgraces 1
%%graceslurs 1
|: "_Slow"\
G4 TB3c {Bc}d4 (BG3) | c4 e3f {ef}g4 (ec3) |\
(f3g)(e3f) d2e2 TB4 | c2e2d2B2 TA4 (GE3) :|
|:\
G2G2- GABc dBed TB2(AG) | c2c2- cdef gagf edec |\
f2(3(agf e2)(3(gfe d)fac TB2(AB) | (cd)(ef) (ge)(dB) TA4 (GE3) :|
|:\
G4 (AB)d2 (ed)(Bg) (dB)(AG) | c2(ed) (cd)(ef) (g3a) (ge)(dc) |\
(fa)d2 (eg)(ce) (fd)(ac) TB2(AG) | c2de gedc TA4 GE3 :|
|:\
G2g2 GABc dBgd TB2(AG) | c2c'2 cdef gc'ba gedc |\
(fa)(FA) (eg)(EG) Aafd TB2(AG) | c2(de) (de)(gB) TA4 GE3 :|
|:\
(G^FG)A BGdG (ecB)g .d(BAG) | cBcd egfa gec'a gedc |\
.f.fa2 .e.eg2 dfAd B2(AG) | c2(de) dgBg {B}TA4 (GE3) :|
|:\
(G3A)(B3c) {Bc}d4 (BG3) | (c3d)(e3f) {ef}g4 ec3 |\
(fa)(df) egc'e fdac B2(AB) | c2(de) d2(gB) TA4 (GE3) :|
